newicons/minecraft_education_preview.svg

<?xml version="1.0" encoding="UTF-8"?><svg id="a" xmlns="http://www.w3.org/2000/svg" viewBox="0 0 48 48"><defs><style>.b{fill:none;stroke:#fff;stroke-linecap:round;stroke-linejoin:round;}</style></defs><path class="b" d="M24,38.25h14.25V9.75H9.75v4.75M19.401,38.25h4.599v-19M24,19.25h-4.599v-4.75M19.401,14.5h-9.651v4.75h9.651v4.75M9.75,24v14.25h9.651v-14.25l-9.651-4.75v4.75Z"/><rect class="b" x="5.5" y="5.5" width="37" height="37" rx="4" ry="4"/></svg>

<svg xmlns="http://www.w3.org/2000/svg" xml:space="preserve" width="48" height="48"><path fill="none" stroke="#fff" stroke-linecap="round" stroke-linejoin="round" d="M24 38.25h14.25V9.75H9.75v4.75m9.651 23.75H24v-19m0 0h-4.599V14.5m0 0H9.75v4.75h9.651V24M9.75 24v14.25h9.651V24zv-4.75M9.5 5.5h29c2.216 0 4 1.784 4 4v29c0 2.216-1.784 4-4 4h-29c-2.216 0-4-1.784-4-4v-29c0-2.216 1.784-4 4-4"/></svg>
